X:1
T:Tristis est anima mea - Croce
T:James Gibb editions
T:#
%%score [ 1 2 3 4 ]
L:1/8
Q:1/4=180
M:2/2
K:C
V:1 treble nm="Soprano" snm="S"
V:2 treble nm="Alto" snm="A"
V:3 treble-8 nm="Tenor" snm="T"
V:4 bass nm="Bass" snm="B"
V:1
"^Giovanni Croce\n(1557-1609)""^Tristis est anima mea" z16 | z4 (A8 | ^G2 ^F2 !courtesy!^G4) x4 | %3
w: |Tris\-||
 A4 E4 x4 | A4 G4 x6 | G4 G8 |[M:2/2] F4 F6 | F2 F4 E16 | E8 x8 | z8 x4 | z4 A8 | ^G4 x8 | A4 E4 | %13
w: tis est|a- ni-|ma me-|a us-|que ad mor-|tem:||sus-|ti-|ne- te|
 E4 E4- x4 | E4 F8 | E4 D4 | D4 D8 | ^C8 x4 | z4 ^C4- x4 | C2 !courtesy!^C2 C4 | D4 E2 (E2- | %21
w: hic, et|* vi-|gi- la-|te me-|cum:|nunc|* vi- de-|bi- tis tur\-|
 E2 DC D4) | E4 E4 | E6 E2 | E4 A4 | ^G16 || z16 | z8 x8 | A8 x8 | A4 G4 | F4 E4 | D8 | G4 A4 | %33
w: |bam, quae|cir- cum-|da- bit|me.|||Vos|fu- gam|ca- pi-|e-|tis, et|
 G4 G4 | G8 | ^F4 !courtesy!^F8 |[Q:1/4=173] ^F4[Q:1/4=168] G8 |[Q:1/4=164] G4[Q:1/4=161] F4 x4 | %38
w: e- go|va-|dam im-|mo- la-|ri pro|
[Q:1/4=155] E16 |[Q:1/4=150] !fermata!E16 |] x16 | x20 | x8 | x8 | x16 |] %45
w: vo-|bis.||||||
V:2
 (C12 x4 | B,2 A,2 B,4) x4 | A,4 E8 | E6 E2 x4 | C4 D4- x6 | D4 D4 x4 | E8 x2 |[M:2/2] C8 x14 | %8
w: Tris\-||tis est|a- ni-|ma me\-|* a|us-|que|
 D8 x8 | (C4 B,2 A,2 x4 | B,8) x4 | C4 C8 | B,4 C4 | A,4 E8 | z4 C4 x4 | C4 B,4 | (C8 x4 | %17
w: ad|mor\- * *||tem: sus-|ti- ne-|te hic,|et|vi- gi-|la\-|
 D4) E4 x4 | (A,8 x4 | B,8) | E,8 | z4 A,4- | A,2 A,2 A,4 | A,4 C4 | (C4 B,2 A,2) | B,4 B,4 x8 || %26
w: * te|me\-||cum:|nunc|* vi- de-|bi- tis|tur\- * *|bam, quae|
 A,6 B,2 x8 | C4 D4 x8 | E16 | z8 | E8 | E4 D4 | C4 B,4 | A,8 | A,4 A,4 | (B,6 C2 x4 | D8) x4 | %37
w: cir- cum-|da- bit|me.||Vos|fu- gam|ca- pi-|e-|tis, et|e\- *||
 D4 (D8 | ^C4) D4 x8 | D8 x8 |] D4 E8 x4 | (E4 D2 C2 x12 | B,4) C4 | B,8 | !fermata!^C16 |] %45
w: go va\-|* dam|im-|mo- la-|ri * *|* pro|vo-|bis.|
V:3
 z16 | z4 (c8 | B2 A2 B4) x4 | c4 A8 | B6 B2 x6 | G4 c4 x4 |[M:2/2][K:treble-8] A4 A6 | %7
w: |Tris\-||tis est|a- ni-|ma me-|a ~us-|
 A2 A4 (A4 x12 | ^G2 ^F2 G8) x4 | A8 x4 | z8 x4 | z4 c8 | B4 x4 | c4 A4 x4 | E4 E4 x4 | A4 A4 | %16
w: que ad mor\-||tem:||sus-|ti-|ne- te|hic, et|vi- gi-|
 A4 A4 x4 | (F2 G2 A8 | ^G4) A8 | z4 E4- | E2 E2 E4 | F4 G4 | A8 | G4 G4 | c6 B2 | A4 A4 x8 || %26
w: la- te|me\- * *|* cum:|nunc|* vi- de-|bi- tis|tur-|bam, quae|cir- cum-|da- bit|
 B16 | e8 x8 | e4 d4 x8 | c4 B4 | (A4 B4 | c8) | d8 | z4 G4 | B4 A4 | (B6 A2 x4 | G8) x4 | A4 A8 | %38
w: me.|Vos|fu- gam|ca- pi-|e\- *||tis,|et|e- go|va\- *||dam im-|
 A4 c8 x4 | c4 A4 x8 |] (^G4 A8 x4 | ^G4) !fermata!A16 | x8 | x8 | x16 |] %45
w: mo- la-|ri pro|vo\- *|* bis.||||
V:4
 (A,12 x4 | ^G,2 ^F,2 !courtesy!^G,4) x4 | A,4 E,8- | E,4 A,6 x2 | A,2 ^F,4 G,8 | C,8 x4 | %6
w: Tris\-||tis est|* a-|ni- ma me-|a|
[M:2/2] F,8 x2 | D,4 D,4 x14 | E,16 | A,,4 A,8 | ^G,4 A,4 x4 | A,4 E,8 | z4 A,4 | A,4 ^G,4 x4 | %14
w: us-|que ad|mor-|tem: sus-|ti- ne-|te hic,|et|vi- gi-|
 (A,2 G,2 F,2 E,2 x4 | D,4) ^C,4 | (D,6 !courtesy!=C,2 x4 | B,,8) x4 | A,,8 x4 | z4 A,,4- | %20
w: la\- * * *|* te|me\- *||cum:|nunc|
 A,,2 A,,2 A,,4 | D,4 C,4 | F,8 | E,4 E,4 | A,6 ^G,2 | A,4 F,4 x8 || E,16 | z16 | A,8 x8 | %29
w: * vi- de-|bi- tis|tur-|bam, quae|cir- cum-|da- bit|me.||Vos|
 A,4 G,4 | F,4 E,4 | D,8 | G,4 G,4 | G,4 ^F,4 | (G,6 !courtesy!=F,2 | E,8) x4 | D,4 D,8 | D,4 C,8 | %38
w: fu- gam|ca- pi-|e-|tis, et|e- go|va\- *||dam im-|mo- la-|
 C,4 D,4 x8 | E,16 |] !fermata!A,,16 | x20 | x8 | x8 | x16 |] %45
w: ri pro|vo-|bis.|||||

